!!!OTL: Parodie einer unbekannten Tageweise
!!!ARE: Europa, Mitteleuropa, Deutschland
!!!SCT: A0123
!!!YEM: Copyright 1995, estate of Helmut Schaffrath.
**kern
*ICvox
*Ivox
*M4/2
*k[f#c#]
*D:
{2g
2b
2a
=1
2dd
4ccn
4b
2cc#
2dd
=2
2dd
2b
1g
=3
2r}
{2g
2a
2b
=4
2ccn
2a
2dd
2dd
=5
3ccn
3b
3a
3.g
6a
3g
=6
1d
2r}
{2b
=7
2a
4b
4ccn
2dd
2ccn
=8
2dd
2b
1g
=9
2r}
{2g
2g
2b
=10
2b
2a
2g
2d
=11
2r
2e
2fn
2g
=12
2b-
2g
2fn
2r}
=13
{3.e
6d
6e
6fn
3g
3r
3b-
=14
1a
2fn
2g
=15
1a
2.fn
4e
=16
0d
=17
2r}
==
!!!AGN: Romanze, Ballade, Lied
!! Haym v. Themar. Augsburg 1590 No. 8. Mixol. mit dor. Schluss.
!!!ONB: ESAC (Essen Associative Code) Database: ALTDEU
!!!AMT: simple quadruple
!!!AIN: vox
!!!EED: Helmut Schaffrath
!!!EEV: 1.0
*-
